X: 80
T: Pollonesse #80
M: 3/4
L: 1/16
K: D
Q:120
D2f2 E2g2 F2a2|a2gf g2eg f2d2|F2d2 E2c2 d2e2|f2dc d4 D4:|
DEFG A2B2 A2d2|A2AG F2EG F2D2|DEFG A2B2 A2d2|A2AG F2EG F2D2|
F2d2 E2c2 d2e2|f2dc d4 D4:|
